!!!!SEGMENT: pl-kk--kk-i-8--010_anonim--audi-benigne-conditor.krn
!!!cenid: 16xx:1151
!!!COM: Anonim
!!!COM-rismid: pe30004985
!!!CDT:
!!!CNT:
!!!OTL: Audi benigne conditor
!!!PDT:
!!!AGN: Sacred
!!!SMS-siglum: PL-Kk
!!!SMS-shelfmark: Kk.I.8
!!!SMS-shelfwork: 010 W
!!!SMS-variant:
!!!SMS-altvar:
!!!NIFC-rismid: 1001148511
!!!URL-scan: http://repozytorium.nifc.pl/skany/pl-kk-nut--i-8
!!!ONB-nifc: UWAGA: A (skan 0007), T1 (0030), T2 (0054), B (0077). Następny utwór: O sol salutis intimis Jesu
**kern	**text	**text	**kern	**text	**text	**kern	**text	**text	**kern	**text	**text
*part4	*part4	*part4	*part3	*part3	*part3	*part2	*part2	*part2	*part1	*part1	*part1
*staff4	*staff4	*staff4	*staff3	*staff3	*staff3	*staff2	*staff2	*staff2	*staff1	*staff1	*staff1
*group1	*	*	*group1	*	*	*group1	*	*	*group1	*	*
*	*verse1	*verse2	*	*verse1	*verse2	*	*verse1	*verse2	*	*verse1	*verse2
*I"BASSVS.	*	*	*I"TENOR 2dus.	*	*	*I"Tenore 1mo	*	*	*I"alto.	*	*
*I'B	*	*	*I'T 2	*	*	*I'T 1	*	*	*I'A	*	*
*clefF4	*	*	*clefC4	*	*	*clefC1	*	*	*clefC3	*	*
*k[b-]	*	*	*k[b-]	*	*	*k[b-]	*	*	*k[b-]	*	*
*M3/1	*	*	*M3/1	*	*	*M3/1	*	*	*M3/1	*	*
=1	=1	=1	=1	=1	=1	=1	=1	=1	=1	=1	=1
!	!	!	!LO:TX:b:t=1ma	!	!	!	!	!	!LO:TX:t=In Eva<..>geſima 1. Mottettu(m)	!	!
1C	1 Au-	2 Scru-	1e-X	1 Au-	2 Scru-	1cc	1 Au-	2 Scru-	1g	1 Au	2 Scru-
1E-X	-di	-ta-	1c	-di	-ta-	1g	-di	-ta-	1e-X	di	-ta-
1C	be-	-tor	1e-	be-	-tor	1cc	be-	-tor	1g	be-	-tor
=2	=2	=2	=2	=2	=2	=2	=2	=2	=2	=2	=2
2C/	-ni-	al-	0c	-nig-	al-	0ee-X	-ni-	al-	0g	-ni-	al-
2D/	.	.	.	.	.	.	.	.	.	.	.
!LO:SIC:v:s=2E-	!	!	!	!	!	!	!	!	!	!	!
2E\	.	.	.	.	.	.	.	.	.	.	.
2F\	.	.	.	.	.	.	.	.	.	.	.
!	!	!	!LO:N:acc=#	!	!	!	!	!	!	!	!
1G	.	.	1Bn	-ne	-me	1dd	-gne	-me	1g	-gne	-me
=3	=3	=3	=3	=3	=3	=3	=3	=3	=3	=3	=3
1A-X	-gne	-me	(1c	con-	cor-	(1cc	con-	cor-	1e-X	con-	cor-
1.F	con-	cor-	1.A-X)	.	.	1.dd)	.	.	1.f	.	.
2F\	-di-	-di-	2A-/	-di-	-di-	2cc\	-di-	-di-	2e-\	-di-	-di-
=4	=4	=4	=4	=4	=4	=4	=4	=4	=4	=4	=4
!	!	!	!	!	!	!LO:N:acc=#	!	!	!	!	!
1G,<	-tor	-u(m)	1G	-tor	-u(m)	1bn	-tor	-u(m)	1d	-tor	-u(m)
!	!	!	!LO:N:acc=#	!	!	!	!	!	!	!	!
1G	noſ-	in-	1Bn	noſ-	in-	1dd	noſ-	in-	1d	noſ-	in-
1D	.	-fir-	1B	-tras	-fir-	1ff	-traſ	-fir-	1d	-traſ	-fir-
=5	=5	=5	=5	=5	=5	=5	=5	=5	=5	=5	=5
0.C	.	-ma	2c\	pre-	-ma	0.ee-X	pre-	-ma	(2e-X\	pre-	-ma
.	.	.	2d\	.	.	.	.	.	2f\)	.	.
.	.	.	2e-X\	.	.	.	.	.	0g	-ceſ	tu
.	.	.	2d\	.	.	.	.	.	.	.	.
.	.	.	2c\	.	.	.	.	.	.	.	.
.	.	.	4d\	.	.	.	.	.	.	.	.
.	.	.	4c\	.	.	.	.	.	.	.	.
=6	=6	=6	=6	=6	=6	=6	=6	=6	=6	=6	=6
!	!	!	!LO:N:acc=#	!	!	!	!	!	!	!	!
1G,<	-traſ	tu	1Bn	-ces	-tu	1dd	-ces	tu	0g	no-	Scis
*	*	*	*	*	*	*	*ij	*ij	*	*	*
1.C	pre-	in-	1c	noſ-	in-	1ee-X	noſ-	in-	.	.	.
.	.	.	1B	-traſ	-fir-	1dd	-traſ	-fir-	1g	-(str)aſ	tu
2C/	-ces	-fir-	.	.	.	.	.	.	.	.	.
=7	=7	=7	=7	=7	=7	=7	=7	=7	=7	=7	=7
*	*ij	*	*	*	*	*	*	*	*	*	*
0C	pre-	-ma	1A	pre-	-ma	1cc	pre-	-ma	0c	p(re)-	Scis
.	.	.	1G	-ceſ	tu	1b-	-ceſ	tu	.	.	.
*	*	*	*	*	*	*	*Xij	*Xij	*	*	*
!	!	!	!LO:TX:a:t=P:problem:♯ above	!	!	!	!	!	!	!	!
!	!	!	!LO:N:acc=#	!	!	!	!	!	!	!	!
1D	-ces	tu	1Fn	c(um)	ſcis	1a	cu(m)	scis	1f	-ceſ	.
*	*Xij	*	*	*	*	*	*	*	*	*	*
=8	=8	=8	=8	=8	=8	=8	=8	=8	=8	=8	=8
1BB-	cu(m)	scis	0G	fle-	Vi-	1b-	fle-	vi-	1d	cu(m)	vi-
1.D	fle-	Vi-	.	.	.	(1.a	.	.	1.A	fle-	.
.	.	.	2F#X/	.	.	.	.	.	.	.	.
2D/	-ti-	-ri-	2G/	-ti-	-ri-	2g/)	-ti-	-ri-	2d\	-ti-	-ri-
=9-	=9	=9	=9	=9	=9	=9	=9	=9	=9	=9	=9
0.GG	-b(us)	-u(m)	0.G	-b(us)	-u(m)	0.g	-b(us)	-u(m)	0.d	-b(us)	-um
=10	=10	=10	=10	=10	=10	=10	=10	=10	=10-	=10	=10
1r	.	.	1r	.	.	1r	.	.	1rc	.	.
!LO:TX:a:t=P:problem:♭ above	!	!	!	!	!	!	!	!	!	!	!
1E-X	in	ad	1B-	in	ad	1b-	in	ad	1e-X	in	ad
1E-	hoc	te	1e-X	hoc	te	1g	hoc	te	1g	hoc	Te
=11	=11	=11	=11	=11	=11	=11	=11	=11	=11	=11	=11
0A-X	Sac-	ad	0c	Sac-	ad	1cc	ſa-	ad	1a-X	Sa-	ad
.	.	.	.	.	.	1a-X	-cro	te	1f	-cro	te
*	*	*	*	*	*	*	*ij	*	*	*	*
1A-	-ro	te	1c	-ro	te	1g	in	re-	1e-yX	Je-	re-
=12	=12	=12	=12	=12	=12	=12	=12	=12	=12	=12	=12
*	*ij	*	*	*ij	*	*	*	*	*	*	*
!	!	!	!	!	!	!	!	!	!LO:SIC:v:s=0e-	!	!
1AA-X	in	ad	1c	in	re-	1g	hoc	-ver-	0e	-ju-	-ver-
1.BB-	hoc	te	1.B-	hoc	.	1.f	ſa-	.	.	.	.
!	!	!	!	!	!	!	!	!	!LO:SIC:v:l:s=-sis:verse 2	!	!
.	.	.	.	.	.	.	.	.	1d	-nio	-is
2BB-/	Sa-	re-	2B-\	Sac-	-ver-	2e-X/	.	.	.	.	.
=13	=13	=13	=13	=13	=13	=13	=13	=13	=13	=13	=13
!LO:TX:a:t=P:problem:♭ above	!	!	!	!	!	!LO:SIC:v:s=0e-	!	!	!LO:SIC:v:s=1e-	!	!
0E-X,<	-cro	-ver-	0.B-	-ro	-ſis	0e	-cro	-ſis	1e	fu-	re-
*	*Xij	*	*	*Xij	*	*	*Xij	*	*	*	*
.	.	.	.	.	.	.	.	.	0g	.	-ver-
!	!	!	!	!	!	!LO:SIC:v:s=2ee-	!	!	!	!	!
1E-	ie-	-sis	.	.	.	2ee\	je-	ex-	.	.	.
.	.	.	.	.	.	2dd\	-ju-	.	.	.	.
=14	=14	=14	=14	=14	=14	=14	=14	=14	=14	=14	=14
0F	-iu-	ex-	1.A-X	je-	ex-	1.cc	.	.	0.f	-ſas	-ſis
.	.	.	2B-/	.	.	2dd\	.	.	.	.	.
1F	-ni-	-hi-	2A-/	.	.	2cc\	.	.	.	.	.
.	.	.	2B-/	.	.	2b-\	.	.	.	.	.
=15	=15	=15	=15	=15	=15	=15	=15	=15	=15	=15	=15
0F	-o	-be	2.c\	-ju-	.	2.a\	.	-hi-	1.f	fu-	ex-
.	.	.	4c\	-ni-	-hi-	4g/	-ni-	.	.	.	.
.	.	.	0A	-o	-be	1f	-o	-be	.	.	.
.	.	.	.	.	.	.	.	.	2e\	.	.
1F	fu-	re-	.	.	.	2ff\	fu-	re-	2d\	.	.
!	!	!	!	!	!	!LO:TX:a:t=P:problem:♭ above	!	!	!	!	!
.	.	.	.	.	.	2ee-X\	.	.	2c/	.	hi-
=16	=16	=16	=16	=16	=16	=16	=16	=16	=16	=16	=16
0G	-ſas	-miſ-	1.B-	fu-	re-	1.dd	.	-miſ-	1B-X	-ſas	-be
.	.	.	.	.	.	.	.	.	0g	qua-	re-
.	.	.	2c\	.	.	2ee-X\	.	.	.	.	.
1G	qua-	-si-	2B-\	.	.	2dd\	.	.	.	.	.
.	.	.	2c\	.	.	2cc\	.	.	.	.	.
=17	=17	=17	=17	=17	=17	=17	=17	=17	=17	=17	=17
!	!	!	!	!	!	!LO:N:acc=#	!	!	!	!	!
0G	-dra-	-o-	1d	-saſ	-miſ-	1bn,	-ſas	-si-	0g	-dra-	-miſ-
!	!	!	!LO:N:acc=#	!	!	!	!	!	!	!	!
.	.	.	1Bn	qua-	-si-	1g	qua-	-o-	.	.	.
1GG	-ge-	-nis	1B	-dra-	-o-	1dd	-dra-	-nis	1g	-ge-	-si-
=18	=18	=18	=18	=18	=18	=18	=18	=18	=18	=18	=18
1.D	-na-	gra-	1d	-ge-	-nis	1ff	-ge-	gra-	0an	-na-	-o-
!	!	!	!	!	!	!LO:TX:a:t=P:problem:♭ above	!	!	!	!	!
.	.	.	1c	-na-	gra-	1ee-X	-na-	-ti-	.	.	.
2D/	-ri-	-ti-	.	.	.	.	.	.	.	.	.
!	!	!	!LO:N:acc=#	!	!	!	!	!	!	!	!
1G	-o	-a(m)	1Bn	-ri-	-ti-	1dd	-ri-	-(am)	1g	-ri-	-nis
!	!	!	!LO:LB:g=original	!	!	!	!	!	!	!	!
=19	=19	=19	=19	=19	=19	=19	=19	=19	=19	=19	=19
!	!	!	!	!	!	!LO:TX:a:t=P:problem:♭ above	!	!	!	!	!
0C	fu-	re-	1c	-o	-am	1ee-X	-o	re-	0g	-o	gra-
.	.	.	1B-	fu-	re-	1dd	fu-	-miſ-	.	.	.
!	!	!	!	!	!	!LO:LB:g=original	!	!	!	!	!
1F	-ſas	-miſ-	1A	-ſas	-miſ-	1cc	.	-si-	(2f\	qua-	.
.	.	.	.	.	.	.	.	.	2e\)	.	.
=20-	=20	=20	=20	=20	=20	=20	=20	=20	=20	=20	=20
*	*	*	*	*	*	*	*	*	*col	*	*
0F#X	qua-	-si-	0A	qua-	-si-	1dd	-sas	-o-	0d	-dra-	-ti-
.	.	.	.	.	.	1cc	qua-	.	.	.	.
!	!	!	!	!	!	!LO:TX:a:t=P:problem:♯ above	!	!	!	!	!
!	!	!	!	!	!	!LO:N:acc=#	!	!	!	!	!
1G	-dra-	-o-	1d	-dra-	-o-	1bn	-dra-	-nis	0g	-ge-	-a(m)
*	*	*	*	*	*	*	*	*	*Xcol	*	*
=21	=21	=21	=21	=21	=21	=21	=21	=21	=21-	=21	=21
1E-X	-ge-	-nis	0c	-ge-	-nis	1ee-X	-ge-	gra-	.	.	.
1.G	-na-	gra-	.	.	.	1.dd	-na-	.	1.g	-na-	gra-
!	!	!	!LO:N:acc=#	!	!	!	!	!	!	!	!
.	.	.	2.Bn\	-na-	gra-	.	.	.	.	.	.
2G\	-ri-	-ti-	.	.	.	2dd\	-ri-	-ti-	2d\	-ri-	-ti-
.	.	.	4c\	-ri-	-ti-	.	.	.	.	.	.
=22-	=22	=22	=22-	=22	=22	=22-	=22	=22	=22	=22	=22
0.Cl;;	-o.	-a(m)	0.cl;;	-o	-a(m)	0.ccl;;	-o.	-a(m)	0.el;;	-o	-a(m)
!	!	!	!	!	!	!	!	!	!LO:LB:g=original	!	!
=23||	=23||	=23||	=23||	=23||	=23||	=23||	=23||	=23||	=23||	=23||	=23||
*M3/1	*	*	*M3/1	*	*	*M3/1	*	*	*M3/1	*	*
*	*verse3	*verse4	*	*verse3	*verse4	*	*verse3	*verse4	*	*verse3	*verse4
!	!	!	!	!	!	!LO:TX:t=P:problem:oznaczenie 3/4 przed 3/1	!	!	!	!	!
0C	3 Mul-	4 Con-	0e-X	3 Mul-	4 Con-	0cc	3 Mul-	4 Con-	0g	3 Mul-	4 Con-
1C	-tu(m)	-ce-	1e-	-tu(m)	-ce-	1cc	-tu(m)	-ce-	1g	-tu(m)	-ce-
=24	=24	=24	=24	=24	=24	=24	=24	=24	=24	=24	=24
1AA-X	qui-	-de	1c	qui-	-de	1e-X	qui-	-de	1a-X	qui-	-de
!LO:SIC:v:s=1A-	!	!	!	!	!	!	!	!	!	!	!
1A	-dem	noſ-	1c	-d(em)	noſ-	1f	-de(m)	nos-	1a-	-de(m)	nos-
1E#X	pec-	-tru(m)	1c	pec-	-tru(m)	1g	pec-	-tru(m)	1g	pec-	-tru(m)
=25	=25	=25	=25	=25	=25	=25	=25	=25	=25	=25	=25
0F	-ca-	Con-	0c	-ca-	con-	0a-X	-ca-	con-	1g	-ca-	con-
.	.	.	.	.	.	.	.	.	2f\	.	.
.	.	.	.	.	.	.	.	.	2e\	.	.
1F	-vi-	-te-	1c	-vi-	-te-	1a-	-vi-	-te-	2.f\	.	-te-
.	.	.	.	.	.	.	.	.	4f\	-vi-	-ri
=26	=26	=26	=26	=26	=26	=26	=26	=26	=26	=26	=26
0C	-m(us)	-ri	0c	-m(us)	-ri	0g	-m(us)	-ri	0e-X	-m(us)	cor-
!LO:N:acc=#	!	!	!	!	!	!	!	!	!	!	!
1BBn	Sed	cor-	1d	Sed	cor-	1g	Sed	cor-	1d	.	-p(us)
=27	=27	=27	=27	=27	=27	=27	=27	=27	=27	=27	=27
!	!	!	!	!	!	!	!	!	!LO:N:acc=#	!	!
0C	par-	-p(us)	0G	par-	-p(us)	0cc	par-	-p(us)	1.en	Sed	per
.	.	.	.	.	.	.	.	.	2e\	par-	ab-
1D	-ce	cor-	1d	-ce	cor-	1b.-	-ce	cor-	1f#X	-ce	-ſti-
=28-	=28	=28	=28	=28	=28	=28-	=28	=28	=28	=28	=28
*	*	*	*	*	*	*	*	*	*	*ij	*
0E-X	par-	-p(us)	0B-	par-	-p(us)	.	.	.	0g	Sed	-nen-
.	.	.	.	.	.	2a\	.	.	.	.	.
.	.	.	.	.	.	2b-\	.	.	.	.	.
.	.	.	.	.	.	2cc\	.	.	.	.	.
!LO:N:n=2:acc=#	!	!	!	!	!	!	!	!	!	!	!
*	*	*	*	*	*	*col	*	*	*	*	*
1G 1BBn	-ce	per	1G	-ce	cor-	0dd	par-	-pus	1g	par-	-ti-
=29-	=29	=29	=29	=29	=29	=29-	=29	=29	=29	=29	=29
!	!	!	!	!	!	!	!	!	!LO:TX:a:t=P:problem:# above	!	!
0.D	Con-	ab-	0A	par-	-p(us)	.	.	.	0f#X	-ce	-a
.	.	.	.	.	.	1cc	.	.	.	.	.
.	.	.	1B-	-ce	per	1b-	-ce	-per	1g	Sed	cor-
*	*	*	*	*	*	*Xcol	*	*	*	*	*
=30-	=30	=30	=30	=30	=30	=30-	=30	=30	=30	=30	=30
*	*	*	*col	*	*	*	*	*	*	*	*
!	!	!	!	!	!	!	!	!	!LO:TX:a:t=P:problem:# above	!	!
0.D	-fi-	-sti-	1A	Con-	ab-	1cc	Con-	.	1f#X	par-	-p(us)
.	.	.	1B-	.	-sti-	1b-	.	ab-	1g	-ce	p(er)
*	*	*	*	*	*	*	*	*	*	*Xij	*
!	!	!	!	!	!	!LO:N:acc=#	!	!	!	!	!
.	.	.	0d	-fi-	-nen-	1an	-fi-	-sti-	1f#	con-	ab-
*	*	*	*Xcol	*	*	*	*	*	*	*	*
=31	=31	=31	=31-	=31	=31	=31	=31	=31	=31	=31	=31
0D	-ten-	-nen-	.	.	.	1b-	-ten-	-nen-	1g	-fi-	-ſti-
.	.	.	1.d	-ten-	.	2a\	.	.	2f\	-ten-	-nen-
!	!	!	!	!	!	!	!	!	!LO:N:acc=#	!	!
!	!	!	!	!	!	!	!	!	!LO:TX:a:t=P:problem:# above	!	!
.	.	.	.	.	.	2g/	.	.	2en\	.	.
1D	-ti-	-ti-	.	.	.	2.a\	.	.	2f\	.	.
!	!	!	!	!	!	!	!	!	!LO:TX:a:t=P:problem:# above	!	!
.	.	.	2d\	-ti-	-ti-	.	.	.	2f#X\	ti-	-ti-
.	.	.	.	.	.	4a\	-ti-	-ti-	.	.	.
=32	=32	=32	=32	=32	=32	=32	=32	=32	=32	=32	=32
!	!	!	!	!	!	!LO:N:acc=#	!	!	!	!	!
0G,<	-b(us)	-a(m)	0d	-bus	-a(m)	0bn	-b(us)	-a(m)	0g	-b(us)	-a(m)
!	!	!	!	!	!	!LO:N:acc=#	!	!	!	!	!
1F	ad	cul-	1c	ad	cul-	1an	ad	cul-	1f	ad	cul-
=33	=33	=33	=33	=33	=33	=33	=33	=33	=33	=33	=33
0C	lau-	-pae	0c	lau-	-pae	0a	lau-	-pae	0f	lau-	-pae
!	!	!	!	!	!	!LO:N:acc=#	!	!	!	!	!
1G	-de(m)	ut	1d	-d(em)	ut	1bn	-d(em)	ut	1f	-de(m)	ut
=34	=34	=34	=34	=34	=34	=34	=34	=34	=34	=34	=34
1.C	no-	re-	1.e-X	no-	re-	1.cc	no-	re-	1.g	No-	re-
2C/	-mi-	-lin-	2e-\	-mi-	-lin-	2cc\	-mi-	-lin-	2g\	-mi-	-lin-
!	!	!	!	!	!	!LO:TX:a:t=P:problem:♭ above	!	!	!	!	!
1D	-nis	-quant	0d	-niſ	-quant	0b-X	-nis	-quant	1f	-niſ	-quant
=35	=35	=35	=35-	=35	=35	=35-	=35	=35	=35	=35	=35
0.F	tu-	pabu-	.	.	.	.	.	.	0.f	tu-	pa-
.	.	.	2c\	tu-	pa-	2a\	tu-	pa-	.	.	.
.	.	.	2B-\	.	.	2g\	.	.	.	.	.
.	.	.	1c	.	-bu-	1a	.	bu	.	.	.
=36	=36	=36	=36	=36	=36	=36	=36	=36	=36	=36	=36
0BB-	-i	-l(um)	0d	i	-l(um)	0b-	-i	lu(m)	0f	-i	-bu-
1BB-	con-	je-	1d	con-	je-	1b-	con-	je-	1f	Con-	-lu(m)
=37	=37	=37	=37	=37	=37	=37	=37	=37	=37	=37	=37
1.C	-fer	-ju-	1.c	-fer	-ju-	1.a	-fer	-ju-	1.e-X	-fer	je-
2D/	me-	-na	2B-\	me-	-na	2a/	me-	-na	2f\	me-	-ju-
1E-X	-de-	je-	1B-	-de-	je-	1g	-de-	je-	1g	-de-	-na
=38	=38	=38	=38	=38	=38	=38	=38	=38	=38	=38	=38
1.BB-	-la(m)	-ju-	1.B-	-la(m)	-ju-	1.g	-la(m)	-ju-	1.d	-la(m)	je-
2C/	me-	-na	2A/	me-	-na	2g/	me-	-na	2e\	me-	-ju-
!	!	!	!	!	!	!	!	!	!LO:TX:a:t=P:problem:# above	!	!
1D	-de-	cor-	1A	-de-	Cor-	1f#X	-de-	cor-	1f#X	-de-	-na
=39	=39	=39	=39	=39	=39	=39	=39	=39	=39	=39	=39
1BB-	-la(m)	-da	1B-	-la(m)	-da	1g	-la(m)	-da	1d	-la(m)	Cor-
1.D	lan-	cri-	1.A	lan-	Cri-	1.g	lan-	cri-	1.d	lan-	-da
2D/	-gui-	-mi-	2A/	-gui-	-mi-	2f#X/	-gui-	-mi-	2d\	-gui-	Cri-
!	!	!	!	!	!	!LO:LB:g=original	!	!	!	!	!
=40	=40	=40	=40	=40	=40	=40	=40	=40	=40	=40	=40
!	!	!	!LO:N:acc=#	!	!	!	!	!	!	!	!
0GG	-dis	-nu(m)	0Bn	-diſ	-nu(m)	0g	-dis	-nu(m)	0d	-diſ	-mi-
1E-X	Con-	je-	1e-X	Con-	Je-	1g	Con-	Je-	1g	Con-	-nu(m)
!LO:LB:g=original	!	!	!LO:LB:g=original	!	!	!	!	!	!	!	!
=41	=41	=41	=41	=41	=41	=41	=41	=41	=41	=41	=41
1.F	-fer	-ju-	1.d	-fer	-ju-	1.a	-fer	-ju-	1.f	-fer	je-
2G\	me-	-na	2d\	me-	-na	2b-\	me-	-na	2e\	me-	-ju-
!	!	!	!	!	!	!	!	!	!LO:TX:a:t=P:problem:♭ above	!	!
1A-X	-de-	je-	1c	-de-	je-	1cc	-del-	je-	1e-X	-de-	-na
=42	=42	=42	=42	=42	=42	=42	=42	=42	=42-	=42	=42
!	!	!	!	!	!	!	!	!	!LO:TX:a:t=P:problem:♭ above	!	!
1.E-X	-la(m)	-ju-	1.c	-la(m)	-ju-	1.g	-la(m)	-ju-	1.e-X	-la(m)	Je-
2F\	me-	-na	2c\	me-	-na	2a\	me-	-na	2d\	me-	-ju-
!	!	!	!LO:N:acc=#	!	!	!LO:N:acc=#	!	!	!	!	!
1G	-de-	cor-	1Bn	-de-	cor-	1bn	-da-	Cor-	1d	-de-	-na
=43	=43	=43	=43	=43	=43	=43	=43	=43	=43	=43	=43
1E-X	-la(m)	-da	1e-X	-la(m)	-da	1cc	-la(m)	-da	1g	-la(m)	Cor-
1.G	lan-	cri-	1.d	lan-	Cri-	1.cc	lan-	Cri-	1.g	lan-	-da
!	!	!	!	!	!	!LO:N:acc=#	!	!	!	!	!
2G\	-gui-	-mi-	2d\	-gui-	-mi-	2bn\	-gui-	-mi-	2d\	-gui-	Cri-
=44	=44	=44	=44-	=44	=44	=44-	=44	=44	=44-	=44	=44
!	!	!	!	!	!	!	!	!	!LO:N:acc=#	!	!
!	!	!	!	!	!	!	!	!	!LO:TX:a:t=P:problem:# above	!	!
0.Cl;<	-dis	-nu(m)	0.cl;;	-diſ.	-nu(m)	0.ccl;;	-dis	-na	0.enl;;	-dis	-minu(m)
!	!	!	!	!	!	!	!	!	!LO:LB:g=original	!	!
=45||	=45||	=45||	=45||	=45||	=45||	=45||	=45||	=45||	=45||	=45||	=45||
*M3/1	*	*	*M3/1	*	*	*M3/1	*	*	*M3/1	*	*
*	*verse5	*	*	*verse5	*	*	*verse5	*	*	*verse5	*
1C	5 Prae-	.	1e-X	Prae-	.	1cc	5 Prae-	.	1g	5 Prae-	.
1C	-ſta	.	1e-	-ſta	.	1cc	-ſta	.	1g	-ſta	.
!LO:N:n=2:acc=#	!	!	!	!	!	!	!	!	!	!	!
1G 1BBn	be-	.	1d	be-	.	1dd	be-	.	1g	Be-	.
=46	=46	=46	=46	=46	=46	=46	=46	=46	=46	=46	=46
1C	-a-	.	0c	-a-	.	1.ee-X	-a-	.	1.g	-a-	.
2C/	-ta	.	.	.	.	.	.	.	.	.	.
2D/	.	.	.	.	.	2dd\	.	.	2f\	.	.
2E/	.	.	1G	-ta	.	2cc\	-ta	.	(2e\	-ta	.
2F\	.	.	.	.	.	2dd\	.	.	2d\)	.	.
=47	=47	=47	=47	=47	=47	=47	=47	=47	=47	=47	=47
!	!	!	!	!	!	!LO:N:acc=#	!	!	!	!	!
1.G	Tri-	.	1.G	Tri-	.	1.bn	Tri-	.	1.d	Tri-	.
2G\	-ni-	.	2G/	-ni-	.	2b\	-ni-	.	2d\	-ni-	.
1G	-tas	.	1G	-tas	.	1b	-tas	.	1d	-taſ	.
=48	=48	=48	=48	=48	=48	=48	=48	=48	=48	=48	=48
!	!	!	!	!	!	!LO:TX:a:t=P:problem:♭ above	!	!	!LO:SIC:v:s=1e-	!	!
1E-X	Con-	.	1G	con-	.	1b-X	Con-	.	1e	Con-	.
!	!	!	!	!	!	!	!	!	!LO:SIC:v:s=1e-	!	!
1E-	-ce-	.	1G	-ce-	.	1b-	-ce-	.	1e	-ce-	.
1D	-de	.	1B-	-de	.	1b-	-de	.	1f	-de	.
=49	=49	=49	=49	=49	=49	=49	=49	=49	=49	=49	=49
!LO:SIC:v:s=1.E-	!	!	!	!	!	!	!	!	!	!	!
*	*	*	*	*	*	*col	*	*	*	*	*
1.E	Sim-	.	1.G	Sim-	.	0ee-X	Sim-	.	0g	Sim-	.
2F\	.	.	2A/	.	.	.	.	.	.	.	.
1G	.	.	0B-	-plex	.	0dd	-plex	.	1g	-plex	.
*	*	*	*	*	*	*Xcol	*	*	*	*	*
=50	=50	=50	=50-	=50	=50	=50-	=50	=50	=50	=50	=50
1D	-plex	.	.	.	.	.	.	.	0f	U-	.
1.F	U-	.	1.B-	U-	.	1.cc	U-	.	.	.	.
.	.	.	.	.	.	.	.	.	1f	-ni-	.
2F\	-ni-	.	2A\	-ni-	.	2b-\	-ni-	.	.	.	.
=51	=51	=51	=51-	=51	=51	=51	=51	=51	=51	=51	=51
0.BB-	-tas	.	0.B-	-tas	.	0.b-	-tas	.	0.f	-taſ	.
=52-	=52	=52	=52-	=52	=52	=52-	=52	=52	=52-	=52	=52
*M2/2	*	*	*M2/2	*	*	*M2/2	*	*	*M2/2	*	*
*met(c|)	*	*	*met(c|)	*	*	*met(c|)	*	*	*met(c|)	*	*
!LO:N:acc=#	!	!	!	!	!	!	!	!	!	!	!
4BBn/	ut	.	4d\	Ut	.	4dd\	Ut	.	8r	.	.
.	.	.	.	.	.	.	.	.	8g\	Ut	.
8BB/	fru-	.	8d\	fru-	.	8dd\	fru-	.	8g\	fru-	.
8BB/	-ctu-	.	8d\	-ctu-	.	8dd\	-ctu-	.	8d\	-ctu-	.
!	!	!	!	!	!	!	!	!	!LO:SIC:v:s=4e-	!	!
4C/	-o-	.	4c\	-o-	.	4g/	-o-	.	4e-X\	-o-	.
4GG/	-ſa	.	4Bny\	-ſa	.	4g/	-ſa	.	(8d\L	-ſa	.
.	.	.	.	.	.	.	.	.	8g\J)	.	.
=53	=53	=53	=53	=53	=53	=53	=53	=53	=53	=53	=53
4.AA/	Sint	.	4.A/	Sint	.	4.cc\	Sint	.	4.g\	Sint	.
8AA/	tu-	.	8A/	tu-	.	8dd\	tu-	.	8f\	tu-	.
8GG/	-is	.	8D/	-is	.	2b-\	-is	.	2g\	-iſ	.
8E-X\	je-	.	8G/	je-	.	.	.	.	.	.	.
8F\	-ju-	.	8A\	-ju-	.	.	.	.	.	.	.
8G\	-ni-	.	8B-\	-ni-	.	.	.	.	.	.	.
=54	=54	=54	=54	=54	=54	=54	=54	=54	=54	=54	=54
(4.A-X\	-o-	.	(4.c\	-o-	.	4cc\	je-	.	8r	.	.
!	!	!	!	!	!	!	!	!	!LO:SIC:v:s=4e-	!	!
.	.	.	.	.	.	.	.	.	8e\	je-	.
.	.	.	.	.	.	8dd\	-ju-	.	8f\	-ju-	.
!	!	!	!	!	!	!LO:SIC:v:s=4ee-	!	!	!	!	!
8G\)	.	.	8B-\)	.	.	8ee\	-ni-	.	8g\	-ni-	.
!	!	!	!	!	!	!	!	!	!LO:SIC:v:s=4.a-	!	!
8F\	-ru(m)	.	8A-X\	-ru(m)	.	4.ff\	o-	.	(4.a\	-o-	.
8F\	je-	.	8A-\	je-	.	.	.	.	.	.	.
8G\	-ju-	.	8B-\	-ju-	.	.	.	.	.	.	.
!	!	!	!	!	!	!LO:SIC:v:s=4ee-	!	!	!	!	!
8A-\	-ni-	.	8c\	-ni-	.	8ee\	.	.	8g\)	.	.
=55	=55	=55	=55	=55	=55	=55	=55	=55	=55	=55	=55
4.B-\	-o-	.	8d\	-o-	.	4.dd\	-ru(m)	.	8f\	ru(m)	.
*	*	*	*	*	*	*	*	*	*	*ij	*
.	.	.	16d\	-r(um)	.	.	.	.	8f\	je-	.
.	.	.	16d\	je-	.	.	.	.	.	.	.
!	!	!	!LO:SIC:v:s=8e-	!	!	!	!	!	!	!	!
.	.	.	8e\	-ju-	.	.	.	.	8g\	-ju-	.
!LO:TX:a:t=P:problem:♭ above	!	!	!	!	!	!	!	!	!LO:TX:a:t=P:problem:♭ above	!	!
8A-X\	.	.	8f\	-ni-	.	8cc\	je-	.	8a-X\	-ni-	.
!LO:LB:g=original	!	!	!	!	!	!	!	!	!	!	!
4G\	.	.	4g\	-o-	.	8dd\	-ju-	.	4b-\	-o-	.
.	.	.	.	.	.	8ee\	-ni-	.	.	.	.
4F\	-ru(m)	.	4c\	-ru(m)	.	8ff\	-o-	.	8b-\L	-ru(m)	.
*	*	*	*	*	*	*	*	*	*	*Xij	*
.	.	.	.	.	.	8ff\	-ru(m)	.	8a-\J	.	.
=56	=56	=56	=56	=56	=56	=56	=56	=56	=56	=56	=56
4.C/	mu-	.	4.c\	mu-	.	4.ff\	mu-	.	4.g\	mu-	.
!	!	!	!	!	!	!LO:SIC:v:t=custos ff	!	!	!	!	!
8C/	-ne-	.	8c\	-ne-	.	8ee\	-ne-	.	8g\	-ne-	.
!	!	!	!	!	!	!LO:LB:g=original	!	!	!	!	!
2FF/	-ra	.	8c\	-ra	.	8ff\	-ra	.	2f\	-ra	.
.	.	.	8A\	je-	.	8cc\	je-	.	.	.	.
.	.	.	8B-\	-ju-	.	8dd\	-ju-	.	.	.	.
!	!	!	!LO:SIC:v:t=custos d	!	!	!	!	!	!	!	!
.	.	.	8c\	-ni-	.	8ff\	-ni-	.	.	.	.
!	!	!	!LO:LB:g=original	!	!	!	!	!	!	!	!
=57	=57	=57	=57	=57	=57	=57	=57	=57	=57	=57	=57
4D\	je-	.	4.d\	-o-	.	4.ff\	-o-	.	8r	.	.
.	.	.	.	.	.	.	.	.	8f\	je-	.
8E\	-ju-	.	.	.	.	.	.	.	8g\	-ju-	.
8F\	-ni-	.	8c\	.	.	8ee\	.	.	8a\	-ni-	.
!	!	!	!	!	!	!	!	!	!LO:TX:a:t=P:problem:♭ above	!	!
4.G\	-o-	.	8B-\	-ru(m)	.	8dd\	-ru(m)	.	4.b-X\	-o-	.
*	*	*	*	*	*	*	*ij	*	*	*	*
.	.	.	8d\	je-	.	8b-\	je-	.	.	.	.
.	.	.	8e\	-ju-	.	8cc\	-ju-	.	.	.	.
8F\	.	.	8f\	-ni-	.	8dd\	-ni-	.	8a\	.	.
=58	=58	=58	=58	=58	=58	=58	=58	=58	=58	=58	=58
8E-X\	-ru(m)	.	8g\	-o-	.	4.ee-X\	-o-	.	4.g\	.	.
8E-\	je-	.	16g\	-ru(m)	.	.	.	.	.	.	.
.	.	.	16G/	je-	.	.	.	.	.	.	.
8F\	-ju-	.	8A\	-ju-	.	.	.	.	.	.	.
8G\	-ni-	.	8B-\	-ni-	.	8dd\	.	.	8f\	.	.
!	!	!	!	!	!	!	!	!	!LO:SIC:v:s=4e-	!	!
4.A-X\	-o-	.	4.c\	-o-	.	8cc\	-ru(m)	.	8e\	-ru(m)	.
!	!	!	!	!	!	!	!	!	!LO:SIC:v:s=4e-	!	!
*	*	*	*	*	*	*	*	*	*	*ij	*
.	.	.	.	.	.	8cc\	je-	.	8e\	je-	.
.	.	.	.	.	.	8dd\	-ju-	.	8f\	-ju-	.
8G\	.	.	8B-\	.	.	8ee-\	-ni-	.	8g\	-ni-	.
=59	=59	=59	=59	=59	=59	=59	=59	=59	=59	=59	=59
2F\	.	.	8A\L	.	.	2ff\	-o-	.	(2a-X\	-o-	.
.	.	.	8G\	.	.	.	.	.	.	.	.
.	.	.	8A\	.	.	.	.	.	.	.	.
.	.	.	8B-\J	.	.	.	.	.	.	.	.
!	!	!	!	!	!	!LO:TX:a:t=P:problem:♭ above	!	!	!	!	!
2C/	-ru(m)	.	2c\	.	.	2ee-X\	-ru(m)	.	2g\)	.	.
*	*	*	*	*	*	*	*Xij	*	*	*	*
=60	=60	=60	=60	=60	=60	=60	=60	=60	=60	=60	=60
!	!	!	!LO:N:acc=#	!	!	!	!	!	!	!	!
2.GG/	mu-	.	2Bn\	-ru(m)	.	2dd\	mu-	.	(2g\	-ru(m)	.
*	*	*	*	*	*	*	*	*	*	*Xij	*
.	.	.	2c.\	mu-	.	2ee\	-ne-	.	2c/)	.	.
4C/	-ne-	.	.	.	.	.	.	.	.	.	.
=61	=61	=61	=61-	=61	=61	=61	=61	=61	=61-	=61	=61
2.GG/	-ra	.	.	.	.	4ee\	-ra	.	2.g\	mu-	.
!	!	!	!LO:N:acc=#	!	!	!	!	!	!	!	!
.	.	.	8Bn\L	.	.	8dd\L	.	.	.	.	.
.	.	.	8A\J	.	.	8cc\J	.	.	.	.	.
.	.	.	4.B\	.	.	2dd\	A-	.	.	.	.
4GGl;;/	a-	.	.	.	.	.	.	.	4d\	-ne-	.
.	.	.	8B\	-ne-	.	.	.	.	.	.	.
=62-	=62	=62	=62	=62	=62	=62	=62	=62	=62	=62	=62
1C;	-men.	.	1cl;;	-ta.	.	1ccl;;	-men	.	1e;;	-ra	.
==	==	==	==	==	==	==	==	==	==	==	==
*-	*-	*-	*-	*-	*-	*-	*-	*-	*-	*-	*-
!!!system-decoration: [g1]
!!!RDF**kern: > = above
!!!RDF**kern: < = below
!!!RDF**kern: l = terminal long
!!!ENC: Berenika Jozajtis
!!!END: 2021-04-02
!!!ENC: Berenika Jozajtis
!!!END: 2021-03-25
